storage/app/icons/phosphoricons/light/polygon-light.svg

<svg xmlns="http://www.w3.org/2000/svg" fill="currentColor" viewBox="0 0 256 256"><path d="M229.23 50.78a30 30 0 0 0-42.44 0 29.8 29.8 0 0 0-5.56 7.69l-31.31-8.54a30 30 0 0 0-51.14-23.16 30.09 30.09 0 0 0-4.65 36.43l-36.3 32.67a30.07 30.07 0 0 0-39.06 2.91 30 30 0 0 0 41.38 43.44l72.6 53.25a30 30 0 1 0 48.47-8.68 29.7 29.7 0 0 0-5.77-4.5l28.44-80.59a32 32 0 0 0 4.11.3 30 30 0 0 0 21.22-51.2Zm-122-15.52a18 18 0 1 1 0 25.46 18 18 0 0 1 .04-25.46Zm-80 97.47a18 18 0 1 1 25.46 0 18 18 0 0 1-25.43 0Zm145.47 88a18 18 0 1 1 0-25.46 18 18 0 0 1 .03 25.47Zm-8.61-42.43a30 30 0 0 0-24.27 7.48l-72.58-53.24a30.14 30.14 0 0 0-1.38-27.75l36.3-32.67a30 30 0 0 0 44.62-10.61l31.31 8.54a30 30 0 0 0 8.7 23.16 30.5 30.5 0 0 0 5.78 4.51Zm56.62-93.59a18 18 0 1 1 0-25.46 18 18 0 0 1 .03 25.47Z"/></svg>

<svg xmlns="http://www.w3.org/2000/svg" viewBox="0 0 256 256" fill="currentColor"><path d="M229.23,50.78a30,30,0,0,0-42.44,0h0a29.82,29.82,0,0,0-5.56,7.69l-31.31-8.54A30,30,0,0,0,98.78,26.77h0A30.09,30.09,0,0,0,94.13,63.2L57.83,95.87a30.07,30.07,0,0,0-39.06,2.91h0a30,30,0,0,0,41.38,43.44l72.6,53.25a30,30,0,1,0,48.47-8.68,29.65,29.65,0,0,0-5.77-4.5l28.44-80.59A31.57,31.57,0,0,0,208,102a30,30,0,0,0,21.22-51.2Zm-122-15.52a18,18,0,1,1,0,25.46A18,18,0,0,1,107.27,35.26Zm-80,97.47a18,18,0,1,1,25.46,0A18,18,0,0,1,27.26,132.73Zm145.47,88a18,18,0,1,1,0-25.46A18,18,0,0,1,172.73,220.74Zm-8.61-42.43a30,30,0,0,0-24.27,7.48L67.24,132.54a30.14,30.14,0,0,0-1.38-27.75l36.3-32.67a30,30,0,0,0,44.62-10.61l31.31,8.54a30,30,0,0,0,8.7,23.16,30.47,30.47,0,0,0,5.78,4.51Zm56.62-93.59a18,18,0,1,1,0-25.46A18,18,0,0,1,220.74,84.72Z"/></svg>
